!!!COM: Hensel, Fanny
!!!CDT: 1805/11/14-1847/05/14
!!!LYR: Hensel, Wilhelm
!!!OTL: Morgengruß
**kern	**text	**text	**dynam	**kern	**text	**text	**dynam	**kern	**text	**text	**dynam	**kern	**text	**text	**dynam
*part4	*part4	*part4	*part4	*part3	*part3	*part3	*part3	*part2	*part2	*part2	*part2	*part1	*part1	*part1	*part1
*staff4	*staff4	*staff4	*	*staff3	*staff3	*staff3	*	*staff2	*staff2	*staff2	*	*staff1	*staff1	*staff1	*
*I"Baß	*	*	*	*I"Tenor	*	*	*	*I"Alt	*	*	*	*I"Sopran	*	*	*
*clefF4	*	*	*	*clefGv2	*	*	*	*clefG2	*	*	*	*clefG2	*	*	*
*k[b-e-a-]	*	*	*	*k[b-e-a-]	*	*	*	*k[b-e-a-]	*	*	*	*k[b-e-a-]	*	*	*
*E-:	*	*	*	*E-:	*	*	*	*E-:	*	*	*	*E-:	*	*	*
*M2/4	*	*	*	*M2/4	*	*	*	*M2/4	*	*	*	*M2/4	*	*	*
=	=	=	=	=	=	=	=	=	=	=	=	=	=	=	=
!	!	!	!	!	!	!	!	!	!	!	!	!LO:TX:a:B:t=Allegro molto	!	!	!
8B-	Um	Ja	p	8d	Um	Ja	p	8a-	Um	Ja	p	8b-	Um	Ja	p
=1	=1	=1	=1	=1	=1	=1	=1	=1	=1	=1	=1	=1	=1	=1	=1
8E-	hel-	he-	.	8e-	hel-	he-	.	8g	hel-	he-	.	8b-	hel-	he-	.
8E-	-ler	-be	.	8B-	-ler	-be	.	8g	-ler	-be	.	8ee-	-ler	-be	.
8E-	Blu-	dich,	.	8Bn	Blu-	dich,	.	8a-	Blu-	dich,	.	8dd	Blu-	dich,	.
8E-	-men	o	.	8c	-men	o	.	8a-	-men	o	.	16ee-L	-men	o	.
.	.	.	.	.	.	.	.	.	.	.	.	16ccJ	.	.	.
=2	=2	=2	=2	=2	=2	=2	=2	=2	=2	=2	=2	=2	=2	=2	=2
8.E-	Far-	See-	.	8.d	Far-	See-	.	8.f	Far-	See-	.	8.b-	Far-	See-	.
16E-	-ben-	-le	.	16B-	-ben-	-le	.	16d	-ben-	-le	.	16a-	-ben-	-le	.
8E-	-ring	auch,	.	8e-	-ring	auch,	.	8e-	-ring	auch,	.	8g	-ring	auch,	.
8d-X	tagt	und	.	8e-	tagt	und	.	8g	tagt	und	.	8b-	tagt	und	.
=3	=3	=3	=3	=3	=3	=3	=3	=3	=3	=3	=3	=3	=3	=3	=3
8.d-X	Bie-	trin-	.	8.e-	Bie-	trin-	.	8.g	Bie-	trin-	.	8.b-	Bie-	trin-	.
16c	-ne	-ke	.	16e-	-ne	-ke	.	16a-	-ne	-ke	.	16a-	-ne	-ke	.
8c	schon	fri-	.	8e-	schon	fri-	.	8a-	schon	fri-	.	8a-	schon	fri-	.
8c-X	und	-schen	.	8e-	und	-schen	.	8a-	und	-schen	.	8ee-	und	-schen	.
=4	=4	=4	=4	=4	=4	=4	=4	=4	=4	=4	=4	=4	=4	=4	=4
!	!	!	!LO:DY:a	!	!	!	!LO:DY:a	!	!	!	!LO:DY:a	!	!	!	!LO:DY:a
8.c-X	Schmet-	Mor-	<	8.e-	Schmet-	Mor-	<	8.a-	Schmet-	Mor-	<	8.ee-	Schmet-	Mor-	<
16B-	-ter-	-gen-	[	16f	-ter-	-gen-	[	16a-	-ter-	-gen-	[	16dd	-ter-	-gen-	[
8B-	-ling,	-hauch	.	8f	-ling,	-hauch	.	8a-	-ling,	-hauch	.	8dd	-ling,	-hauch	.
8D	durch	in	f	8f	durch	in	f	8a-	durch	in	f	8b-	durch	in	f
=5	=5	=5	=5	=5	=5	=5	=5	=5	=5	=5	=5	=5	=5	=5	=5
4E-'	Grä-	vol-	.	4e-'	Grä-	vol-	.	4g'	Grä-	vol-	.	4gg'	Grä-	vol-	.
4D'	-ser	-len,	.	4B-'	-ser	-len,	.	4f'	-ser	-len,	.	4b-'	-ser	-len,	.
=6	=6	=6	=6	=6	=6	=6	=6	=6	=6	=6	=6	=6	=6	=6	=6
4C'	schlüpft,	sel-	.	4c'	schlüpft,	sel-	.	4e-'	schlüpft,	sel-	.	4ee-'	schlüpft,	sel-	.
8r	.	.	.	8r	.	.	.	8r	.	.	.	8r	.	.	.
8B-	durch	-gen,	p	8c	durch	-gen,	p	8e-	durch	-gen,	p	8g	durch	-gen,	p
=7	=7	=7	=7	=7	=7	=7	=7	=7	=7	=7	=7	=7	=7	=7	=7
8A-	Grä-	vol-	.	8c	Grä-	vol-	.	8e-	Grä-	vol-	.	8f	Grä-	vol-	.
8A-	-ser	-len,	.	8c	-ser	-len,	.	8f	-ser	-len,	.	8a-	-ser	-len,	.
8A-	schlüpft	sel-	.	8c	schlüpft	sel-	.	8f	schlüpft	sel-	.	8cc	schlüpft	sel-	.
8A-	der	-gen	.	8f	der	-gen	.	8a-	der	-gen	.	8ff	der	-gen	.
=8	=8	=8	=8	=8	=8	=8	=8	=8	=8	=8	=8	=8	=8	=8	=8
4B-	Kä-	Zü-	.	4f	Kä-	Zü-	.	4a-	Kä-	Zü-	.	4ee-	Kä-	Zü-	.
8B-	-fer,	-gen,	.	8f	-fer,	-gen,	.	8a-	-fer,	-gen,	.	8dd	-fer,	-gen,	.
8B-	im	dein	.	8d	im	dein	.	8a-	im	dein	.	8b-	im	dein	.
=9	=9	=9	=9	=9	=9	=9	=9	=9	=9	=9	=9	=9	=9	=9	=9
8E-	Per-	ist	.	8e-	Per-	ist	.	8g	Per-	ist	.	8b-	Per-	ist	.
8E-	-len-	die	.	8B-	-len-	die	.	8g	-len-	die	.	8ee-	-len-	die	.
8E-	-glan-	wei-	.	8Bn	-glan-	wei-	.	8a-	-glan-	wei-	.	8dd	-glan-	wei-	.
8E-	-ze	-te	.	8c	-ze	-te	.	8a-	-ze	-te	.	16ee-L	-ze	-te	.
.	.	.	.	.	.	.	.	.	.	.	.	16ccJ	.	.	.
=10	=10	=10	=10	=10	=10	=10	=10	=10	=10	=10	=10	=10	=10	=10	=10
8.E-	steht	schö-	.	8.d	steht	schö-	.	8.f	steht	schö-	.	8.b-	steht	schö-	.
16E-	die	-ne	.	16B-	die	-ne	.	16d	die	-ne	.	16a-	die	-ne	.
8E-	Au,	Welt,	.	8e-	Au,	Welt,	.	8e-	Au,	Welt,	.	8g	Au,	Welt,	.
8d-X	die	vom	.	8e-	die	vom	.	8g	die	vom	.	8b-	die	vom	.
=11	=11	=11	=11	=11	=11	=11	=11	=11	=11	=11	=11	=11	=11	=11	=11
8.d-X	Bäu-	Gra-	.	8.e-	Bäu-	Gra-	.	8.g	Bäu-	Gra-	.	8.b-	Bäu-	Gra-	.
16c	-me	-se	.	16e-	-me	-se	.	16a-	-me	-se	.	16a-	-me	-se	.
8c	schüt-	bis	.	8e-	schüt-	bis	.	8a-	schüt-	bis	.	8a-	schüt-	bis	.
8c-X	-teln	zum	.	8e-	-teln	zum	.	8a-	-teln	zum	.	8ee-	-teln	zum	.
=12	=12	=12	=12	=12	=12	=12	=12	=12	=12	=12	=12	=12	=12	=12	=12
!LO:TX:b:i:t=cresc.	!	!	!	!LO:TX:b:i:t=cresc.	!	!	!	!LO:TX:b:i:t=cresc.	!	!	!	!LO:TX:b:i:t=cresc.	!	!	!
8.c-X	gold-	Him-	.	8.e-	gold-	Him-	.	8.a-	gold-	Him-	.	8.ee-	gold-	Him-	.
16B-	-nen	-mels-	.	16f	-nen	-mels-	.	16a-	-nen	-mels-	.	16dd	-nen	-mels-	.
8B-	Tau,	-zelt,	.	8f	Tau,	-zelt,	.	8a-	Tau,	-zelt,	.	8dd	Tau,	-zelt,	.
8D	er	zu	.	8f	er	zu	.	8a-	er	zu	.	8b-	er	zu	.
=13	=13	=13	=13	=13	=13	=13	=13	=13	=13	=13	=13	=13	=13	=13	=13
4E-'	wacht	frei-	f	4e-'	wacht	frei-	f	4g'	wacht	frei-	f	4gg'	wacht	frei-	f
4E-'	vom	-em,	.	4d'	vom	-em,	.	4f'	vom	-em,	.	4b-'	vom	-em,	.
=14	=14	=14	=14	=14	=14	=14	=14	=14	=14	=14	=14	=14	=14	=14	=14
4F'	Traum,	wei-	.	4c'	Traum,	wei-	.	4e-'	Traum,	wei-	.	4ee-'	Traum,	wei-	.
8r	.	.	.	8r	.	.	.	8r	.	.	.	8r	.	.	.
8F#X	er-	-tem	.	8c	er-	-tem	.	8e-	er-	-tem	.	8an	er-	-tem	.
=15	=15	=15	=15	=15	=15	=15	=15	=15	=15	=15	=15	=15	=15	=15	=15
[8G	-wacht	See-	.	[8B-	-wacht	See-	.	(8d	-wacht	See-	.	(8b-	-wacht	See-	.
8G]	vom	.	.	8B-]	vom	.	.	8e-)	vom	.	.	8cc)	vom	.	.
(8Fn	Traum,	-len-	.	[8B-	Traum,	-len-	.	(8f	Traum,	-len-	.	(8dd	Traum,	-len-	.
8E-)	ihr	.	.	8B-]	ihr	.	.	8g)	ihr	.	.	8ee-)	ihr	.	.
=16	=16	=16	=16	=16	=16	=16	=16	=16	=16	=16	=16	=16	=16	=16	=16
2D	Schlä-	-flu-	.	(4B-	Schlä-	-flu-	.	(4a-X	Schlä-	-flu-	.	4ff	Schlä-	-flu-	.
.	.	.	.	4A-X)	.	.	.	4f)	.	.	.	4bn	-fer,	-ge,	.
=17	=17	=17	=17	=17	=17	=17	=17	=17	=17	=17	=17	=17	=17	=17	=17
4E-	-fer,	-ge,	.	4G	-fer,	-ge,	.	4e-	-fer,	-ge,	.	8r	.	.	.
.	.	.	.	.	.	.	.	.	.	.	.	8cc	er-	zu	.
4r	.	.	.	4r	.	.	.	4r	.	.	.	8dd	-wacht	frei-	.
.	.	.	.	.	.	.	.	.	.	.	.	8ee-	vom	-em	.
=18	=18	=18	=18	=18	=18	=18	=18	=18	=18	=18	=18	=18	=18	=18	=18
4r	.	.	.	4r	.	.	.	4r	.	.	.	(8ggL	Traum,	See-	.
.	.	.	.	.	.	.	.	.	.	.	.	8ddJ	.	.	.
8r	.	.	.	8r	.	.	.	8r	.	.	.	8ee-)	.	.	.
8E-	ihr	zu	.	8e-	ihr	zu	.	8g	ihr	zu	.	8cc	ihr	-len-	.
=19	=19	=19	=19	=19	=19	=19	=19	=19	=19	=19	=19	=19	=19	=19	=19
*^	*	*	*	*	*	*	*	*	*	*	*	*	*	*	*
2F	4ryy	Schlä-	frei-	.	(4d	Schlä-	frei-	.	(4f	Schlä-	frei-	.	(4.b-	Schlä-	-flu-	.
.	4qF/	.	.	.	.	.	.	.	.	.	.	.	.	.	.	.
.	4ryy	.	.	.	4An)	.	-em	.	4e-)	.	-em	.	.	.	.	.
.	.	.	.	.	.	.	.	.	.	.	.	.	16ddL	.	.	.
.	.	.	.	.	.	.	.	.	.	.	.	.	16ccJ)	.	.	.
*v	*v	*	*	*	*	*	*	*	*	*	*	*	*	*	*	*
=20	=20	=20	=20	=20	=20	=20	=20	=20	=20	=20	=20	=20	=20	=20	=20
4BB-	-fer.	-Flug.	.	8B-	-fer.	Flug.	.	4d	-fer.	Flug.	.	4b-	-fer.	-ge.	.
.	.	.	.	8B-	Um	Ja	p	.	.	.	.	.	.	.	.
4r	.	.	.	8c	hel-	he-	.	8r	.	.	.	8r	.	.	.
.	.	.	.	8B-	-ler,	-be	.	8d	Um	.	p	8f	Um	Ja	p
=21	=21	=21	=21	=21	=21	=21	=21	=21	=21	=21	=21	=21	=21	=21	=21
4r	.	.	.	16A-L	hel-	dich,	.	8B-	hel-	he-	.	8d	hel-	he-	.
.	.	.	.	16B-J	.	.	.	.	.	.	.	.	.	.	.
!	!	!	!	!	!	!	!LO:DY:a	!	!	!	!LO:DY:a	!	!	!	!LO:DY:a
.	.	.	.	16A-L	-ler	o	<	8d	-ler	-be	<	8f	-ler	-be	<
.	.	.	.	16B-J	.	.	.	.	.	.	.	.	.	.	.
8r	.	.	.	16A-L	Blu-	See-	.	8f	Blu-	dich,	.	8b-	Blu-	dich,	.
.	.	.	.	16B-J	.	.	.	.	.	.	.	.	.	.	.
!	!	!	!LO:DY:a	!	!	!	!	!	!	!	!	!	!	!	!
8BB-	tagt	Ja	< p [[	16A-L	-men	-le,	.	8f	-men	o	[	8dd	-men	o	[
.	.	.	.	16B-J	.	.	[	.	.	.	.	.	.	.	.
=22	=22	=22	=22	=22	=22	=22	=22	=22	=22	=22	=22	=22	=22	=22	=22
8.BB-	Bie-	he-	.	8.A-	Far-	See-	.	8.d	Far-	See-	.	8.ff	Far-	See-	.
!	!	!	!	!	!	!	!LO:DY:a	!	!	!	!LO:DY:a	!	!	!	!LO:DY:a
16BB-	-ne	-be	.	16A-	-ben-	-le	>	16d	-ben-	-le	>	16dd	-ben-	-le	>
8BB-	schon	dich,	.	8A-	-ring	auch,	.	8d	-ring	auch,	.	8b-	-ring	auch,	.
8r	.	.	.	8B-	tagt	und	]	8d	tagt	und	]	8f	tagt	und	]
=23	=23	=23	=23	=23	=23	=23	=23	=23	=23	=23	=23	=23	=23	=23	=23
4r	.	.	.	16A-L	Bie-	trin-	.	8B-	Bie-	trin-	.	8.d	Bie-	trin-	.
.	.	.	.	16B-J	.	.	.	.	.	.	.	.	.	.	.
.	.	.	.	16A-L	.	.	.	8d	.	.	.	.	.	.	.
!	!	!	!	!	!	!	!	!	!	!	!	!	!	!	!LO:DY:a
.	.	.	.	16B-J	-ne	-ke	.	.	.	.	.	16f	-ne	-ke	<
!	!	!	!	!	!	!	!LO:DY:a	!	!	!	!LO:DY:a	!	!	!	!
8r	.	.	.	16A-L	schon	fri-	<	8d	-schon	-fri-	<	8b-	schon	fri-	.
.	.	.	.	16B-J	.	.	.	.	.	.	.	.	.	.	.
8BB-	und	o	.	16A-L	und	-schen	.	8f	und	-schen	[	8dd	und	-schen	[
.	.	.	.	16B-J	.	.	[	.	.	.	.	.	.	.	.
=24	=24	=24	=24	=24	=24	=24	=24	=24	=24	=24	=24	=24	=24	=24	=24
!	!	!	!LO:DY:a	!	!	!	!LO:DY:a	!	!	!	!LO:DY:a	!	!	!	!LO:DY:a
8.BB-	Schmet-	See-	>	8.A-	Schmet-	Mor-	>	8.d	Schmet-	Mor-	>	8.ff	Schmet-	Mor-	>
16BB-	-ter-	-le	]	16A-	-ter-	-gen-	]	16d	-ter-	-gen-	]	16dd	-ter-	-gen-	]
8BB-	-ling,	auch,	.	8A-	-ling,	-hauch	.	8d	-ling,	-hauch	.	8b-	-ling,	-hauch	.
8BB-	durch	in	.	8B-	durch	in	.	8d	durch	in	.	8b-	durch	in	.
=25	=25	=25	=25	=25	=25	=25	=25	=25	=25	=25	=25	=25	=25	=25	=25
8.GG^	Grä-	vol-	.	8.Bn^	Grä-	vol-	.	8.d^	Grä-	vol-	.	8.gg^	Grä-	vol-	.
16G	-ser	-len,	.	16B	-ser	-len,	.	16f	-ser	-len,	.	16dd	-ser	-len,	.
8G	schlüpft	sel-	.	8B	schlüpft	sel-	.	8f	schlüpft	sel-	.	8dd	schlüpft	sel-	.
8G	der	-gen	.	8B	der	-gen	.	8f	der	-gen	.	8dd	der	-gen	.
=26	=26	=26	=26	=26	=26	=26	=26	=26	=26	=26	=26	=26	=26	=26	=26
4G	Kä-	Zü-	.	4Bn	Kä-	Zü-	.	4f	Kä-	Zü-	.	4dd	Kä-	Zü-	.
8C	-fer,	-gn,	.	8c	-fer,	-gn,	.	8e-	-fer,	-gn,	.	8ee-	-fer,	-gn,	.
8C	durch	in	.	8c	durch	in	.	8e-	durch	in	.	8ee-	durch	in	.
=27	=27	=27	=27	=27	=27	=27	=27	=27	=27	=27	=27	=27	=27	=27	=27
8.E-^	Grä-	vol-	.	8.G^	Grä-	vol-	.	8.d-X^	Grä-	vol-	.	8.ee-^	Grä-	vol-	.
16E-	-ser	-len,	.	16G	-ser	-len,	.	16d-	-ser	-len,	.	16bn	-ser	-len,	.
8E-	schlüpft	sel-	.	8G	schlüpft	sel-	.	8d-	schlüpft	sel-	.	8b	schlüpft	sel-	.
8E-	der	-gen	.	8G	der	-gen	.	8d-	der	-gen	.	8b	der	-gen	.
=28	=28	=28	=28	=28	=28	=28	=28	=28	=28	=28	=28	=28	=28	=28	=28
4E-	Kä-	Zü-	.	4G	Kä-	Zü-	.	4d-X	Kä-	Zü-	.	4bn	Kä-	Zü-	.
4AA-	-fer,	-gen,	.	4A-	-fer,	-gen,	.	4c	-fer,	-gen,	.	8cc	-fer,	-gen,	.
.	.	.	.	.	.	.	.	.	.	.	.	8cc	im	dein	p
=29	=29	=29	=29	=29	=29	=29	=29	=29	=29	=29	=29	=29	=29	=29	=29
2r	.	.	.	2r	.	.	.	2r	.	.	.	8a-	Per-	ist	.
.	.	.	.	.	.	.	.	.	.	.	.	8f	-len-	die	.
.	.	.	.	.	.	.	.	.	.	.	.	8en	-glan-	wei-	.
.	.	.	.	.	.	.	.	.	.	.	.	8f	-ze	-te	.
=30	=30	=30	=30	=30	=30	=30	=30	=30	=30	=30	=30	=30	=30	=30	=30
!	!	!	!	!	!	!	!	!	!	!	!	!	!	!	!LO:DY:a
4r	.	.	.	4r	.	.	.	4r	.	.	.	8a-	steht	schö-	<
.	.	.	.	.	.	.	.	.	.	.	.	8cc	die	-ne	.
8r	.	.	.	8r	.	.	.	8r	.	.	.	8gg	Au,	Welt,	[
8A-	er	zu	p	8c	er	zu	p	8a-	er	zu	p	8ff	er	zu	.
=31	=31	=31	=31	=31	=31	=31	=31	=31	=31	=31	=31	=31	=31	=31	=31
8.B-	wacht	frei-	.	8.e-	wacht	frei-	.	8.g	wacht	frei-	.	8.ee-	wacht	frei-	.
16B-	vom	-em	.	16e-	vom	-em	.	16g	vom	-em	.	16b-	vom	-em	.
8B-	Traum	See-	.	8d	Traum	See-	.	8f	Traum	See-	.	8b-	Traum	See-	.
8B-	ihr	-len-	.	8d	ihr	-len-	.	8f	ihr	-len-	.	8a-	ihr	-len-	.
=32	=32	=32	=32	=32	=32	=32	=32	=32	=32	=32	=32	=32	=32	=32	=32
4c	Schlä-	-flu-	.	4d	Schlä-	-flu-	.	4f	Schlä-	-flu-	.	4a-	Schlä-	-flu-	.
8c	-fer,	-ge,	.	8e-	-fer,	-ge,	.	8e-	-fer,	-ge,	.	8g	-fer,	-ge,	.
8r	.	.	.	8r	.	.	.	8a-	die	vom	.	8r	.	.	.
=33	=33	=33	=33	=33	=33	=33	=33	=33	=33	=33	=33	=33	=33	=33	=33
2r	.	.	.	2r	.	.	.	8e-	Bäu-	Gra-	.	2r	.	.	.
.	.	.	.	.	.	.	.	8c	-me	-se	.	.	.	.	.
.	.	.	.	.	.	.	.	8Bn	schüt-	bis	.	.	.	.	.
.	.	.	.	.	.	.	.	8c	-teln	zum	.	.	.	.	.
=34	=34	=34	=34	=34	=34	=34	=34	=34	=34	=34	=34	=34	=34	=34	=34
!	!	!	!	!	!	!	!	!	!	!	!LO:DY:a	!	!	!	!
4r	.	.	.	4r	.	.	.	8e-	gold-	Him-	<	4r	.	.	.
.	.	.	.	.	.	.	.	8g	-nen	-mels-	.	.	.	.	.
8r	.	.	.	8r	.	.	.	8dd	Tau,	-zelt,	[	8r	.	.	.
8A-	er-	zu	f	8e-	er-	zu	f	8cc	er-	zu	.	8f	er-	zu	f
=35	=35	=35	=35	=35	=35	=35	=35	=35	=35	=35	=35	=35	=35	=35	=35
8.B-	-wacht	frei-	.	8.e-	-wacht	frei-	.	8.b-	-wacht	frei-	.	8.g	-wacht	frei-	.
16B-	vom	-em	.	16e-	vom	-em	.	16a-	vom	-em	.	16g	vom	-em	.
8B-	Traum,	See-	.	8e-	Traum,	See-	.	8g	Traum,	See-	.	8b-	Traum,	See-	.
8B-	ihr	-len-	.	8e-	ihr	-len-	.	8g	ihr	-len-	.	8ee-	ihr	-len-	.
=36	=36	=36	=36	=36	=36	=36	=36	=36	=36	=36	=36	=36	=36	=36	=36
2BB-	Schlä-	-flu-	.	(4e-	Schlä-	-flu-	.	(4g	Schlä-	-flu-	.	(4.gg	Schlä-	-flu-	.
.	.	.	.	4d)	.	.	.	4a-)	.	.	.	.	.	.	.
.	.	.	.	.	.	.	.	.	.	.	.	8ff)	.	.	.
=37	=37	=37	=37	=37	=37	=37	=37	=37	=37	=37	=37	=37	=37	=37	=37
4E-	-fer.	-ge.	.	4e-	-fer.	-ge.	.	4g	-fer.	-ge.	.	4ee-	-fer.	-ge.	.
4r	.	.	.	4r	.	.	.	4r	.	.	.	4r	.	.	.
==	==	==	==	==	==	==	==	==	==	==	==	==	==	==	==
*-	*-	*-	*-	*-	*-	*-	*-	*-	*-	*-	*-	*-	*-	*-	*-
!!!system-decoration: ([s1,s2,s3,s4])
!!!EED: Imke Redecker